public/durar-green.svg

<svg width="147" height="47" viewBox="0 0 147 47" fill="none" xmlns="http://www.w3.org/2000/svg">
<path d="M40.159 26.8672C40.0949 29.2755 39.5947 31.6523 38.6828 33.8822C34.9167 34.4517 31.3176 35.8262 28.1307 37.9123L27.8355 38.1072C24.8489 40.1188 22.2993 42.7127 20.3392 45.7333L20.0883 46.129C20.0558 46.0817 20.0233 46.0286 19.9938 45.9784C18.0418 42.8932 15.4786 40.2405 12.4621 38.1839C12.3646 38.119 12.2702 38.0511 12.1668 37.9891C9.00695 35.8915 5.43201 34.4998 1.68564 33.9088C0.760313 31.6727 0.251993 29.2862 0.185791 26.8672L0.380653 26.8879C4.59585 27.337 8.64073 28.7953 12.1727 31.1394C12.2702 31.2014 12.3646 31.2693 12.468 31.3342C15.4845 33.3908 18.0477 36.0435 19.9997 39.1287C20.0292 39.1819 20.0617 39.232 20.0942 39.2822L20.3451 38.8837C22.3061 35.8621 24.8556 33.2665 27.8414 31.2516L28.1366 31.0597C31.6802 28.7367 35.7309 27.3007 39.9464 26.8731L40.159 26.8672Z" fill="#173A01"/>
<path d="M39.9169 24.154C39.9169 24.0625 39.8992 23.9709 39.8903 23.8794V23.8587C39.5023 20.4655 38.2447 17.2299 36.2393 14.4652C34.2339 11.7005 31.5487 9.50043 28.4437 8.0779L28.116 7.93028L27.9536 7.86237C27.8414 7.81218 27.7292 7.7679 27.6141 7.72066C27.4989 7.67342 27.3424 7.61142 27.2037 7.55827L26.9999 7.48446L26.625 7.35455L26.1674 7.20103C24.3912 6.64018 22.5439 6.33596 20.6817 6.29758V4.80068C21.0342 4.81062 21.3853 4.75145 21.7151 4.62649C22.0771 4.48964 22.4057 4.27718 22.6791 4.00327C22.9525 3.72937 23.1643 3.40032 23.3005 3.03807C23.0626 3.2421 22.7908 3.40297 22.4975 3.51342C22.0063 3.70164 21.4712 3.7437 20.9566 3.63452C20.4421 3.52534 19.9702 3.26959 19.5978 2.89813C19.2254 2.52667 18.9684 2.05537 18.858 1.54112C18.7475 1.02687 18.7882 0.491629 18.9752 0C18.6145 0.3072 18.3401 0.703125 18.1792 1.14871C18.0182 1.5943 17.9762 2.07416 18.0573 2.54095C18.1383 3.00773 18.3397 3.44531 18.6415 3.81052C18.9433 4.17573 19.3351 4.45595 19.7782 4.62354V6.30348C17.9367 6.34198 16.1098 6.64017 14.3516 7.18922L14.0564 7.28074L13.7051 7.40179L13.5958 7.44017L13.2563 7.56418C13.1264 7.61142 13.0024 7.66161 12.8754 7.7118L12.84 7.72656L12.7278 7.7738C12.6127 7.81809 12.5005 7.86828 12.3853 7.91552C12.2702 7.96276 12.0901 8.04247 11.9543 8.11038C8.86152 9.5409 6.18892 11.7432 4.19353 14.5054C2.19814 17.2676 0.947105 20.4968 0.560752 23.8824V23.9148L0.53418 24.2101V24.4817H0.847139H0.941618H1.12762C4.86887 24.5698 8.53585 25.5442 11.8273 27.3249L11.91 27.3692L11.969 27.4017L12.0605 27.4519C12.0848 27.468 12.1105 27.4818 12.1373 27.4932L12.1727 27.5109L12.3469 27.6113L12.3971 27.6408H12.3824C12.3824 27.6408 17.8355 31.6266 19.7635 34.4315L19.7871 34.4699V34.4876C19.8166 34.5348 19.8491 34.5791 19.8816 34.6263C19.9141 34.6736 19.9141 34.6765 19.9347 34.709L20.2005 35.1164L20.4426 34.6972C20.4507 34.6823 20.4606 34.6684 20.4721 34.6559V34.6322C20.5134 34.5673 20.5547 34.5053 20.602 34.4433C22.5165 31.633 25.0393 29.2898 27.9831 27.5877H28.0274L28.0894 27.5316C28.1159 27.5132 28.1435 27.4964 28.1721 27.4814L28.24 27.443L28.2902 27.4224L28.3108 27.4814C28.3108 27.3958 28.3285 27.3899 28.3404 27.384L28.5145 27.3013C28.5302 27.2875 28.5482 27.2765 28.5677 27.2688C31.8693 25.486 35.5458 24.5097 39.2969 24.4197H39.6453H39.8549V24.1599L39.9169 24.154ZM19.7782 32.9523C17.8491 30.4374 15.4332 28.3367 12.6747 26.7758L12.6304 26.7285C12.8489 20.9624 15.943 16.3359 19.7782 15.9993V32.9523ZM27.7705 26.7758C25.0243 28.3483 22.6161 30.4484 20.6847 32.9552V15.9964C24.5228 16.3359 27.6141 20.9683 27.8266 26.7315L27.7705 26.7758Z" fill="#F38708"/>
<path d="M145.804 31.8223C143.995 31.8223 142.568 31.4047 141.523 30.5694C140.914 30.0995 140.349 29.5513 139.827 28.9249C139.322 28.2984 138.878 27.6893 138.495 27.0976C138.113 26.4885 137.799 25.9926 137.556 25.6097C137.242 25.1572 136.938 24.7483 136.642 24.3828C136.364 24.0174 135.946 23.8347 135.389 23.8347C135.111 23.8347 134.971 23.9826 134.971 24.2784V27.959C134.971 28.9684 135.041 29.708 135.18 30.1778C135.215 30.317 135.363 30.4389 135.624 30.5433C135.902 30.6477 136.198 30.7347 136.511 30.8043C136.825 30.8565 137.06 30.8826 137.216 30.8826C137.286 30.8826 137.321 31.0305 137.321 31.3264C137.321 31.483 137.303 31.6309 137.269 31.7701C135.372 31.6657 134.136 31.6135 133.562 31.6135C133.092 31.6135 132.561 31.6222 131.969 31.6396C131.395 31.657 130.934 31.6831 130.586 31.7179L130.064 31.7701C130.012 31.6831 129.986 31.5265 129.986 31.3003C129.986 31.0218 130.012 30.8826 130.064 30.8826C130.221 30.8826 130.429 30.8565 130.69 30.8043C130.951 30.7521 131.195 30.6825 131.421 30.5955C131.665 30.5085 131.804 30.4128 131.839 30.3083C131.943 29.9951 131.996 29.2033 131.996 27.9329V18.0658C131.996 17.0739 131.943 16.3604 131.839 15.9253C131.804 15.8209 131.665 15.7252 131.421 15.6382C131.195 15.5338 130.943 15.4467 130.664 15.3771C130.403 15.3075 130.203 15.2727 130.064 15.2727C129.994 15.2727 129.96 15.1422 129.96 14.8812C129.96 14.6201 129.994 14.4635 130.064 14.4113C131.926 14.4635 133.083 14.4896 133.536 14.4896C134.388 14.4722 135.05 14.4635 135.52 14.4635C135.989 14.4635 136.346 14.4635 136.59 14.4635C136.833 14.4461 137.042 14.4374 137.216 14.4374C138.139 14.4374 139.044 14.6027 139.931 14.9334C140.819 15.264 141.549 15.7687 142.124 16.4474C142.715 17.1261 143.011 17.9875 143.011 19.0316C143.011 19.6581 142.872 20.2672 142.594 20.8589C142.315 21.4505 141.941 21.9726 141.471 22.4251C141.001 22.8775 140.471 23.2256 139.879 23.4692C139.74 23.5214 139.705 23.6084 139.774 23.7303C140.262 24.6004 140.749 25.4096 141.236 26.1579C141.724 26.8888 142.211 27.5588 142.698 28.1679C143.307 28.9162 143.96 29.56 144.656 30.0995C145.369 30.6216 146.022 30.8826 146.614 30.8826C146.683 30.9696 146.718 31.1088 146.718 31.3003C146.718 31.4917 146.683 31.6483 146.614 31.7701C146.509 31.7875 146.387 31.7962 146.248 31.7962C146.126 31.8136 145.978 31.8223 145.804 31.8223ZM136.642 22.5817H137.321C137.965 22.5817 138.539 22.2772 139.044 21.6681C139.566 21.059 139.827 20.2672 139.827 19.2927C139.827 16.9259 138.817 15.7426 136.799 15.7426C136.05 15.7426 135.546 15.8035 135.285 15.9253C135.076 16.0123 134.971 16.9172 134.971 18.6401V21.642C134.971 22.0248 135.119 22.2772 135.415 22.399C135.711 22.5208 136.12 22.5817 136.642 22.5817Z" fill="#173A01"/>
<path d="M109.541 31.744C109.472 31.6744 109.437 31.5439 109.437 31.3525C109.437 31.0392 109.454 30.8826 109.489 30.8826C109.628 30.8826 109.828 30.8478 110.09 30.7782C110.368 30.7086 110.629 30.6216 110.873 30.5172C111.134 30.3954 111.299 30.2735 111.369 30.1517C111.543 29.8907 111.708 29.5948 111.865 29.2642C112.021 28.9162 112.187 28.5333 112.361 28.1156L117.216 16.3691C117.633 15.3075 117.955 14.681 118.182 14.4896C118.303 14.3678 118.451 14.3069 118.625 14.3069C118.747 14.3069 118.852 14.3504 118.939 14.4374L124.42 28.1156C124.56 28.4463 124.69 28.7769 124.812 29.1076C124.951 29.4208 125.082 29.7254 125.203 30.0212C125.273 30.1952 125.43 30.3518 125.673 30.4911C125.917 30.6129 126.169 30.7086 126.43 30.7782C126.691 30.8478 126.891 30.8826 127.031 30.8826C127.1 30.8826 127.135 31.0392 127.135 31.3525C127.135 31.5439 127.118 31.6744 127.083 31.744L123.794 31.5874L120.4 31.744C120.331 31.6744 120.296 31.5091 120.296 31.2481C120.296 31.0044 120.331 30.8826 120.4 30.8826C120.609 30.8826 120.896 30.8304 121.262 30.726C121.627 30.6216 121.845 30.4998 121.914 30.3605C121.967 30.2561 121.993 30.143 121.993 30.0212C121.993 29.8472 121.949 29.6122 121.862 29.3164C121.775 29.0206 121.653 28.6551 121.497 28.2201L120.583 25.7924C120.514 25.7228 120.453 25.688 120.4 25.688C120.122 25.6706 119.791 25.6619 119.408 25.6619C119.043 25.6445 118.625 25.6358 118.156 25.6358C117.216 25.6358 116.224 25.6619 115.18 25.7141C115.075 25.7141 115.023 25.7489 115.023 25.8185L114.031 28.2462C113.857 28.6812 113.727 29.0467 113.64 29.3425C113.57 29.6209 113.535 29.8211 113.535 29.9429C113.535 30.1517 113.631 30.3257 113.822 30.465C113.927 30.5346 114.083 30.6042 114.292 30.6738C114.518 30.726 114.745 30.7782 114.971 30.8304C115.197 30.8652 115.354 30.8826 115.441 30.8826C115.493 30.9 115.519 31.0218 115.519 31.2481C115.519 31.3699 115.51 31.4743 115.493 31.5613C115.493 31.6309 115.484 31.6918 115.467 31.744C114.823 31.7092 114.292 31.6744 113.875 31.6396C113.474 31.6048 113.1 31.5874 112.752 31.5874C112.404 31.5874 111.986 31.5961 111.499 31.6135C111.012 31.6309 110.359 31.6744 109.541 31.744ZM117.686 24.2262C118.312 24.2262 119.026 24.2001 119.826 24.1479L119.878 24.0435L117.894 18.8228L115.754 24.0435C115.754 24.1131 115.771 24.1479 115.806 24.1479C116.415 24.2001 117.042 24.2262 117.686 24.2262Z" fill="#173A01"/>
<path d="M106.038 31.8223C104.228 31.8223 102.801 31.4047 101.757 30.5694C101.148 30.0995 100.583 29.5513 100.061 28.9249C99.5559 28.2984 99.1121 27.6893 98.7293 27.0976C98.3464 26.4885 98.0332 25.9926 97.7895 25.6097C97.4763 25.1572 97.1718 24.7483 96.8759 24.3828C96.5975 24.0174 96.1798 23.8347 95.623 23.8347C95.3445 23.8347 95.2053 23.9826 95.2053 24.2784V27.959C95.2053 28.9684 95.2749 29.708 95.4141 30.1778C95.4489 30.317 95.5968 30.4389 95.8579 30.5433C96.1363 30.6477 96.4322 30.7347 96.7454 30.8043C97.0586 30.8565 97.2936 30.8826 97.4502 30.8826C97.5198 30.8826 97.5546 31.0305 97.5546 31.3264C97.5546 31.483 97.5372 31.6309 97.5024 31.7701C95.6055 31.6657 94.37 31.6135 93.7957 31.6135C93.3258 31.6135 92.7951 31.6222 92.2034 31.6396C91.6291 31.657 91.168 31.6831 90.8199 31.7179L90.2978 31.7701C90.2456 31.6831 90.2195 31.5265 90.2195 31.3003C90.2195 31.0218 90.2456 30.8826 90.2978 30.8826C90.4545 30.8826 90.6633 30.8565 90.9243 30.8043C91.1854 30.7521 91.429 30.6825 91.6552 30.5955C91.8988 30.5085 92.0381 30.4128 92.0729 30.3083C92.1773 29.9951 92.2295 29.2033 92.2295 27.9329V18.0658C92.2295 17.0739 92.1773 16.3604 92.0729 15.9253C92.0381 15.8209 91.8988 15.7252 91.6552 15.6382C91.429 15.5338 91.1767 15.4467 90.8982 15.3771C90.6372 15.3075 90.4371 15.2727 90.2978 15.2727C90.2282 15.2727 90.1934 15.1422 90.1934 14.8812C90.1934 14.6201 90.2282 14.4635 90.2978 14.4113C92.1599 14.4635 93.3171 14.4896 93.7696 14.4896C94.6223 14.4722 95.2836 14.4635 95.7535 14.4635C96.2233 14.4635 96.5801 14.4635 96.8237 14.4635C97.0673 14.4461 97.2762 14.4374 97.4502 14.4374C98.3725 14.4374 99.2774 14.6027 100.165 14.9334C101.052 15.264 101.783 15.7687 102.358 16.4474C102.949 17.1261 103.245 17.9875 103.245 19.0316C103.245 19.6581 103.106 20.2672 102.828 20.8589C102.549 21.4505 102.175 21.9726 101.705 22.4251C101.235 22.8775 100.704 23.2256 100.113 23.4692C99.9735 23.5214 99.9387 23.6084 100.008 23.7303C100.496 24.6004 100.983 25.4096 101.47 26.1579C101.957 26.8888 102.445 27.5588 102.932 28.1679C103.541 28.9162 104.194 29.56 104.89 30.0995C105.603 30.6216 106.256 30.8826 106.847 30.8826C106.917 30.9696 106.952 31.1088 106.952 31.3003C106.952 31.4917 106.917 31.6483 106.847 31.7701C106.743 31.7875 106.621 31.7962 106.482 31.7962C106.36 31.8136 106.212 31.8223 106.038 31.8223ZM96.8759 22.5817H97.5546C98.1985 22.5817 98.7728 22.2772 99.2774 21.6681C99.7995 21.059 100.061 20.2672 100.061 19.2927C100.061 16.9259 99.0512 15.7426 97.0325 15.7426C96.2842 15.7426 95.7796 15.8035 95.5185 15.9253C95.3097 16.0123 95.2053 16.9172 95.2053 18.6401V21.642C95.2053 22.0248 95.3532 22.2772 95.6491 22.399C95.9449 22.5208 96.3539 22.5817 96.8759 22.5817Z" fill="#173A01"/>
<path d="M78.3894 31.7179C76.3011 31.7179 74.6566 31.0914 73.4558 29.8385C72.2551 28.5681 71.6547 26.532 71.6547 23.7303V18.0397C71.6547 16.9433 71.5851 16.2124 71.4459 15.847C71.4111 15.7426 71.2806 15.6469 71.0543 15.5599C70.8455 15.4728 70.6106 15.4032 70.3495 15.351C70.1059 15.2814 69.9145 15.2466 69.7753 15.2466C69.7056 15.2466 69.6708 15.1161 69.6708 14.8551C69.6708 14.594 69.6969 14.4374 69.7491 14.3852L73.2209 14.5418C73.5516 14.5418 74.6653 14.4896 76.5622 14.3852C76.5796 14.4548 76.5883 14.5244 76.5883 14.594C76.6057 14.6636 76.6144 14.7332 76.6144 14.8029C76.6144 15.0987 76.5796 15.2466 76.51 15.2466C76.4055 15.2466 76.2141 15.2814 75.9357 15.351C75.6746 15.4032 75.431 15.4728 75.2048 15.5599C74.9786 15.6469 74.8567 15.7426 74.8393 15.847C74.7697 16.108 74.7175 16.43 74.6827 16.8128C74.6479 17.1957 74.6305 17.6394 74.6305 18.1441V24.1479C74.6305 25.9404 75.0134 27.376 75.7791 28.455C76.5622 29.5165 77.6411 30.0473 79.0159 30.0473C80.3559 30.0473 81.4261 29.6122 82.2266 28.7421C83.0445 27.8546 83.4535 26.3928 83.4535 24.3567V17.9875C83.4535 16.9259 83.3665 16.2298 83.1925 15.8992C83.1228 15.7948 82.9488 15.6904 82.6704 15.586C82.4094 15.4815 82.1309 15.3945 81.8351 15.3249C81.5392 15.2553 81.313 15.2205 81.1564 15.2205C81.0868 15.2205 81.0433 15.0987 81.0259 14.8551C81.0259 14.6114 81.052 14.4548 81.1042 14.3852C82.0439 14.4548 82.7835 14.507 83.323 14.5418C83.8799 14.5592 84.2366 14.5679 84.3932 14.5679C84.6194 14.5679 84.8718 14.5592 85.1502 14.5418C85.4461 14.5244 85.7767 14.4983 86.1422 14.4635C86.8557 14.4113 87.2994 14.3852 87.4734 14.3852C87.4908 14.4548 87.4995 14.5244 87.4995 14.594C87.5169 14.6462 87.5256 14.7158 87.5256 14.8029C87.5256 15.0813 87.4908 15.2205 87.4212 15.2205C87.2646 15.2205 87.0384 15.2553 86.7425 15.3249C86.4467 15.3771 86.1596 15.4554 85.8811 15.5599C85.6027 15.6643 85.4113 15.7948 85.3068 15.9514C85.1154 16.4213 85.0197 17.1435 85.0197 18.118V24.2523C85.0197 26.9671 84.3845 28.9075 83.1141 30.0734C82.5051 30.6477 81.809 31.0653 81.0259 31.3264C80.2602 31.5874 79.3813 31.7179 78.3894 31.7179Z" fill="#173A01"/>
<path d="M50.0097 31.744C49.9575 31.6918 49.9314 31.5526 49.9314 31.3264C49.9314 31.0305 49.9575 30.8826 50.0097 30.8826C50.1663 30.8826 50.3664 30.8565 50.61 30.8043C50.8711 30.7521 51.1147 30.6825 51.3409 30.5955C51.5846 30.5085 51.7238 30.4128 51.7586 30.3083C51.8804 29.9603 51.9413 29.1685 51.9413 27.9329V18.0658C51.9413 17.0042 51.8804 16.2908 51.7586 15.9253C51.7238 15.7861 51.5933 15.673 51.3671 15.586C51.1582 15.4815 50.9146 15.4032 50.6362 15.351C50.3751 15.2988 50.1576 15.2727 49.9836 15.2727C49.914 15.2727 49.8792 15.1422 49.8792 14.8812C49.8792 14.6375 49.914 14.4809 49.9836 14.4113C51.1321 14.4635 52.2894 14.4896 53.4553 14.4896H57.9712C59.3808 14.4896 60.6425 14.7158 61.7563 15.1683C62.8874 15.6034 63.8358 16.2124 64.6015 16.9955C65.3846 17.7787 65.9763 18.6749 66.3766 19.6842C66.7942 20.6935 67.0031 21.7638 67.0031 22.8949C67.0031 24.5656 66.6376 26.0709 65.9067 27.4109C65.1932 28.7334 64.1578 29.7863 62.8004 30.5694C61.443 31.3525 59.8246 31.744 57.9451 31.744C57.7711 31.744 57.5014 31.7353 57.1359 31.7179C56.7879 31.7179 56.3441 31.7092 55.8046 31.6918C55.2652 31.6744 54.804 31.657 54.4212 31.6396C54.0383 31.6222 53.7251 31.6222 53.4814 31.6396L50.0097 31.744ZM58.3628 30.4128C61.8955 30.4128 63.6618 27.872 63.6618 22.7905C63.6618 21.4854 63.4443 20.3107 63.0092 19.2666C62.5916 18.205 61.9738 17.361 61.1559 16.7345C60.3554 16.108 59.3634 15.7948 58.1801 15.7948H58.0496C56.3789 15.7948 55.4392 15.934 55.2304 16.2124C55.0041 16.5083 54.891 17.0478 54.891 17.8309V28.0634C54.891 29.0206 54.9867 29.6645 55.1782 29.9951C55.4566 30.2735 56.5181 30.4128 58.3628 30.4128Z" fill="#173A01"/>
</svg>

<svg xmlns="http://www.w3.org/2000/svg" width="147" height="47" fill="none" xmlns:v="https://vecta.io/nano"><path d="M40.159 26.867c-.064 2.408-.564 4.785-1.476 7.015a26.5 26.5 0 0 0-10.552 4.03l-.295.195a26.75 26.75 0 0 0-7.496 7.626l-.251.396a2.58 2.58 0 0 1-.095-.151 26.73 26.73 0 0 0-7.532-7.794l-.295-.195c-3.16-2.098-6.735-3.489-10.481-4.08-.925-2.236-1.434-4.623-1.5-7.042l.195.021a26.38 26.38 0 0 1 11.792 4.252c.098.062.192.13.295.195A26.73 26.73 0 0 1 20 39.129c.029.053.062.103.095.154l.251-.399c1.961-3.022 4.511-5.617 7.496-7.632l.295-.192a26.4 26.4 0 0 1 11.81-4.187l.213-.006z" fill="#173a01"/><path d="M39.917 24.154c0-.091-.018-.183-.027-.275v-.021c-.388-3.393-1.646-6.629-3.651-9.393a19.84 19.84 0 0 0-7.796-6.387l-.328-.148-.162-.068c-.112-.05-.224-.094-.34-.142l-.41-.162L27 7.484l-.375-.13-.458-.154c-1.776-.561-3.623-.865-5.486-.903V4.801a2.7 2.7 0 0 0 1.033-.174 2.72 2.72 0 0 0 1.585-1.588 2.69 2.69 0 0 1-.803.475c-.491.188-1.026.23-1.541.121s-.986-.365-1.359-.736-.629-.843-.74-1.357-.07-1.049.117-1.541c-.361.307-.635.703-.796 1.149s-.203.925-.122 1.392.282.904.584 1.27.694.645 1.137.813v1.68a19.58 19.58 0 0 0-5.427.886l-.295.092-.351.121-.109.038-.34.124c-.13.047-.254.097-.381.148l-.035.015-.112.047c-.115.044-.227.094-.342.142s-.295.127-.431.195A19.86 19.86 0 0 0 .561 23.882v.032l-.027.295v.272h.313.094.186c3.741.088 7.408 1.063 10.7 2.843l.083.044.059.033.091.05c.024.016.05.03.077.041l.035.018.174.1.05.029h-.015s5.453 3.986 7.381 6.791l.024.038v.018c.03.047.062.091.095.139s.033.05.053.083l.266.407.242-.419c.008-.015.018-.029.03-.041v-.024a2.66 2.66 0 0 1 .13-.189 22.65 22.65 0 0 1 7.381-6.856h.044l.062-.056a.78.78 0 0 1 .083-.05l.068-.038.05-.021.021.059c0-.086.018-.091.03-.097l.174-.083c.016-.014.034-.025.053-.033a23.78 23.78 0 0 1 10.729-2.849h.348.21v-.26l.062-.006zm-20.139 8.798a23.6 23.6 0 0 0-7.103-6.177l-.044-.047c.219-5.766 3.313-10.393 7.148-10.729v16.953zm7.992-6.177a24 24 0 0 0-7.086 6.179V15.996c3.838.339 6.929 4.972 7.142 10.735l-.056.044z" fill="#f38708"/><path d="M145.804 31.822c-1.809 0-3.236-.418-4.281-1.253a10.77 10.77 0 0 1-1.696-1.645l-1.332-1.827-.939-1.488-.914-1.227c-.278-.365-.696-.548-1.253-.548-.278 0-.418.148-.418.444v3.681c0 1.009.07 1.749.209 2.219.035.139.183.261.444.365a6.59 6.59 0 0 0 .887.261 4.75 4.75 0 0 0 .705.078c.07 0 .105.148.105.444 0 .157-.018.305-.052.444l-3.707-.157-1.593.026-1.383.078-.522.052c-.052-.087-.078-.244-.078-.47 0-.279.026-.418.078-.418a3.36 3.36 0 0 0 .626-.078 4.48 4.48 0 0 0 .731-.209c.244-.087.383-.183.418-.287.104-.313.157-1.105.157-2.375v-9.867c0-.992-.053-1.705-.157-2.14-.035-.104-.174-.2-.418-.287a4.33 4.33 0 0 0-.757-.261c-.261-.07-.461-.104-.6-.104-.07 0-.104-.13-.104-.392s.034-.418.104-.47l3.472.078 1.984-.026h1.07l.626-.026c.923 0 1.828.165 2.715.496s1.618.835 2.193 1.514c.591.679.887 1.54.887 2.584 0 .627-.139 1.236-.417 1.827s-.653 1.114-1.123 1.566a5.06 5.06 0 0 1-1.592 1.044c-.139.052-.174.139-.105.261l1.462 2.428 1.462 2.01a12.09 12.09 0 0 0 1.958 1.932c.713.522 1.366.783 1.958.783.069.087.104.226.104.418s-.035.348-.104.47a2.31 2.31 0 0 1-.366.026 3.21 3.21 0 0 1-.444.026zm-9.162-9.241h.679c.644 0 1.218-.305 1.723-.914.522-.609.783-1.401.783-2.375 0-2.367-1.01-3.55-3.028-3.55-.749 0-1.253.061-1.514.183-.209.087-.314.992-.314 2.715v3.002c0 .383.148.635.444.757s.705.183 1.227.183zm-27.101 9.163c-.069-.07-.104-.2-.104-.392 0-.313.017-.47.052-.47.139 0 .339-.035.601-.104.278-.07.539-.157.783-.261.261-.122.426-.244.496-.365a7.06 7.06 0 0 0 .496-.888l.496-1.149 4.855-11.747c.417-1.062.739-1.688.966-1.88a.6.6 0 0 1 .443-.183.43.43 0 0 1 .314.13l5.481 13.678.392.992.391.914c.07.174.227.331.47.47a3.94 3.94 0 0 0 .757.287 2.56 2.56 0 0 0 .601.104c.069 0 .104.157.104.47 0 .191-.017.322-.052.392l-3.289-.157-3.394.157c-.069-.07-.104-.235-.104-.496 0-.244.035-.366.104-.366.209 0 .496-.052.862-.157s.583-.226.652-.366a.74.74 0 0 0 .079-.339c0-.174-.044-.409-.131-.705l-.365-1.096-.914-2.428c-.069-.07-.13-.104-.183-.104l-.992-.026-1.252-.026-2.976.078c-.105 0-.157.035-.157.104l-.992 2.428-.391 1.096c-.07.278-.105.479-.105.6 0 .209.096.383.287.522.105.07.261.139.47.209l.679.157.47.052c.052.017.078.139.078.366a1.65 1.65 0 0 1-.026.313.59.59 0 0 1-.026.183l-1.592-.104-1.123-.052-1.253.026-1.958.131zm8.145-7.518l2.14-.078.052-.104-1.984-5.221-2.14 5.221c0 .07.017.104.052.104l1.88.078zm-11.648 7.596c-1.81 0-3.237-.418-4.281-1.253a10.77 10.77 0 0 1-1.696-1.645l-1.332-1.827-.94-1.488-.914-1.227c-.278-.365-.696-.548-1.253-.548-.279 0-.418.148-.418.444v3.681c0 1.009.07 1.749.209 2.219.035.139.183.261.444.365a6.61 6.61 0 0 0 .888.261c.313.052.548.078.705.078.07 0 .104.148.104.444 0 .157-.017.305-.052.444l-3.707-.157-1.592.026-1.383.078-.522.052c-.052-.087-.078-.244-.078-.47 0-.279.026-.418.078-.418.157 0 .366-.026.627-.078a4.48 4.48 0 0 0 .731-.209c.244-.087.383-.183.418-.287.104-.313.157-1.105.157-2.375v-9.867c0-.992-.052-1.705-.157-2.14-.035-.104-.174-.2-.418-.287a4.33 4.33 0 0 0-.757-.261c-.261-.07-.461-.104-.6-.104-.07 0-.104-.13-.104-.392s.035-.418.104-.47l3.472.078 1.984-.026h1.07l.626-.026a7.72 7.72 0 0 1 2.715.496 5.19 5.19 0 0 1 2.193 1.514c.591.679.887 1.54.887 2.584 0 .627-.139 1.236-.417 1.827s-.653 1.114-1.123 1.566a5.06 5.06 0 0 1-1.592 1.044c-.139.052-.174.139-.105.261l1.462 2.428 1.462 2.01a12.09 12.09 0 0 0 1.958 1.932c.713.522 1.366.783 1.957.783.07.087.105.226.105.418s-.035.348-.105.47a2.24 2.24 0 0 1-.365.026 3.21 3.21 0 0 1-.444.026zm-9.162-9.241h.679c.644 0 1.218-.305 1.723-.914.522-.609.784-1.401.784-2.375 0-2.367-1.01-3.55-3.029-3.55-.748 0-1.253.061-1.514.183-.209.087-.313.992-.313 2.715v3.002c0 .383.148.635.444.757s.705.183 1.227.183zm-18.487 9.137c-2.088 0-3.733-.626-4.934-1.879-1.201-1.27-1.801-3.306-1.801-6.108V18.04c0-1.096-.07-1.827-.209-2.193-.035-.104-.165-.2-.392-.287a3.73 3.73 0 0 0-.705-.209c-.244-.07-.435-.104-.574-.104-.07 0-.105-.131-.105-.392s.026-.418.078-.47l3.472.157 3.341-.157a.86.86 0 0 1 .026.209.86.86 0 0 1 .026.209c0 .296-.035.444-.104.444-.105 0-.296.035-.574.104a4.47 4.47 0 0 0-.731.209c-.226.087-.348.183-.366.287a5.89 5.89 0 0 0-.157.966 14.9 14.9 0 0 0-.052 1.331v6.004c0 1.793.383 3.228 1.149 4.307.783 1.062 1.862 1.592 3.237 1.592 1.34 0 2.41-.435 3.211-1.305.818-.887 1.227-2.349 1.227-4.385v-6.369c0-1.062-.087-1.758-.261-2.088-.07-.104-.244-.209-.522-.313a5.85 5.85 0 0 0-.835-.261c-.296-.07-.522-.104-.679-.104-.07 0-.113-.122-.131-.365 0-.244.026-.4.078-.47l2.219.157 1.07.026.757-.026.992-.078 1.331-.078a.86.86 0 0 1 .026.209.68.68 0 0 1 .026.209c0 .278-.035.418-.104.418-.157 0-.383.035-.679.104a4.84 4.84 0 0 0-.861.235c-.278.104-.47.235-.574.391-.191.47-.287 1.192-.287 2.167v6.134c0 2.715-.635 4.655-1.906 5.821a5.59 5.59 0 0 1-2.088 1.253c-.766.261-1.645.392-2.636.392zm-28.379.026c-.052-.052-.078-.191-.078-.418 0-.296.026-.444.078-.444.157 0 .357-.026.6-.078a4.48 4.48 0 0 0 .731-.209c.244-.087.383-.183.418-.287.122-.348.183-1.14.183-2.375v-9.867c0-1.062-.061-1.775-.183-2.14-.035-.139-.165-.252-.392-.339a2.79 2.79 0 0 0-.731-.235c-.261-.052-.479-.078-.653-.078-.07 0-.104-.13-.104-.392 0-.244.035-.4.104-.47l3.472.078h4.516c1.41 0 2.671.226 3.785.679 1.131.435 2.079 1.044 2.845 1.827.783.783 1.375 1.679 1.775 2.689.418 1.009.627 2.08.627 3.211 0 1.671-.365 3.176-1.096 4.516-.713 1.322-1.749 2.375-3.106 3.159s-2.976 1.175-4.855 1.175c-.174 0-.444-.009-.809-.026-.348 0-.792-.009-1.331-.026l-1.383-.052c-.383-.017-.696-.017-.94 0l-3.472.104zm8.353-1.331c3.533 0 5.299-2.541 5.299-7.622 0-1.305-.218-2.48-.653-3.524-.418-1.062-1.035-1.906-1.853-2.532-.8-.626-1.793-.94-2.976-.94h-.131c-1.671 0-2.61.139-2.819.418-.226.296-.339.835-.339 1.619v10.233c0 .957.096 1.601.287 1.932.278.278 1.34.418 3.185.418z" fill="#173a01"/></svg>
